src/OCIOexperiments/dev/data/configs/AgXc-v0.1.4/config.ocio
#version: 0.1.4
ocio_profile_version: 2
description: |
  AgX config by Troy Sobotka. Modified with full permissions from
  Troy Sobotka. CAT used is <Bradford>.

environment: { }
search_path: LUTs
strictparsing: true

roles:
  color_picking: sRGB
  color_timing: sRGB
  compositing_log: AgX Log (Kraken)
  data: Passthrough
  default: sRGB
  default_byte: sRGB
  default_float: Linear sRGB
  default_sequencer: sRGB
  matte_paint: sRGB
  reference: Linear sRGB
  scene_linear: Linear sRGB
  texture_paint: sRGB
  aces_interchange: ACES2065-1
  cie_xyz_d65_interchange: CIE - XYZ - D65

displays:
  sRGB:
    - !<View> { name: AgX Punchy, colorspace: Appearance Punchy sRGB }
    - !<View> { name: AgX, colorspace: AgX Base sRGB }
    - !<View> { name: Disabled, colorspace: Passthrough }
    - !<View> { name: Display Native, colorspace: sRGB }
  Display P3:
    - !<View> { name: AgX Punchy, colorspace: Appearance Punchy Display P3 }
    - !<View> { name: AgX, colorspace: AgX Base Display P3 }
    - !<View> { name: Disabled, colorspace: Passthrough }
    - !<View> { name: Display Native, colorspace: Display P3 }
  BT.1886:
    - !<View> { name: AgX Punchy, colorspace: Appearance Punchy BT.1886 }
    - !<View> { name: AgX, colorspace: AgX Base BT.1886 }
    - !<View> { name: Disabled, colorspace: Passthrough }
    - !<View> { name: Display Native, colorspace: BT.1886 }

active_displays: [ sRGB ]
active_views: [ ]

looks:

  - !<Look>
    name: Punchy
    process_space: AgX Base
    description: A punchy and more chroma laden look.
    transform: !<CDLTransform> { power: [ 1.3, 1.3, 1.3 ], sat: 1.2 }

  - !<Look>
    name: OverExposed
    process_space: scene_linear
    description: Overexpose the scene
    transform: !<ExposureContrastTransform> { exposure: 1.5 }


colorspaces:
  - !<ColorSpace>
    name: Linear sRGB
    family: Colorspaces
    equalitygroup: ""
    bitdepth: 32f
    description: Open Domain Linear BT.709 Tristimulus
    isdata: false
    allocation: lg2
    allocationvars: [ -10, 7, 0.0056065625 ]

  - !<ColorSpace>
    name: AgX Log (Kraken)
    family: AgX
    equalitygroup: ""
    bitdepth: 32f
    description: AgX Log (Kraken)
    isdata: false
    allocation: uniform
    allocationvars: [ -12.47393, 4.026069 ]
    from_reference: !<GroupTransform>
      children:
        # the 3 bottom transforms are used only as a hack to clamp negatives
        - !<AllocationTransform> { allocation: lg2, vars: [ -10, 7, 0.0056065625 ] }
        - !<FileTransform> { src: dummy.spi1d, interpolation: linear }
        - !<AllocationTransform> { allocation: lg2, vars: [ -10, 7, 0.0056065625 ], direction: inverse }
        - !<MatrixTransform> { matrix: [ 0.842479062253094, 0.0784335999999992, 0.0792237451477643, 0, 0.0423282422610123, 0.878468636469772, 0.0791661274605434, 0, 0.0423756549057051, 0.0784336, 0.879142973793104, 0, 0, 0, 0, 1 ] }
        - !<AllocationTransform> { allocation: lg2, vars: [ -12.47393, 4.026069, 0.0056065625 ] }

  - !<ColorSpace>
    name: 2.2 EOTF Encoding
    family: Utilities/Curves
    equalitygroup: ""
    bitdepth: unknown
    description: "transfer-function: 2.2 Exponent EOTF Encoding"
    isdata: false
    allocation: uniform
    allocationvars: [ 0, 1 ]
    from_reference: !<ExponentTransform> { value: [ 2.2, 2.2, 2.2, 1 ], direction: inverse }

  - !<ColorSpace>
    name: 2.4 EOTF Encoding
    family: Utilities/Curves
    equalitygroup: ""
    bitdepth: unknown
    description: "transfer-function: 2.4 Exponent EOTF Encoding"
    isdata: false
    allocation: uniform
    allocationvars: [ 0, 1 ]
    from_reference: !<ExponentTransform> { value: [ 2.4, 2.4, 2.4, 1 ], direction: inverse }

  - !<ColorSpace>
    name: sRGB
    family: Colorspaces
    equalitygroup: ""
    bitdepth: unknown
    description: sRGB IEC 61966-2-1 2.2 Exponent Reference EOTF Display
    isdata: false
    allocation: uniform
    allocationvars: [ 0.0, 1.0 ]
    from_reference: !<ColorSpaceTransform> { src: reference, dst: 2.2 EOTF Encoding }

  - !<ColorSpace>
    name: Display P3
    family: Colorspaces
    equalitygroup: ""
    bitdepth: unknown
    description: Display P3 2.2 Exponent EOTF Display. For Apple hardware.
    isdata: false
    allocation: uniform
    allocationvars: [ 0.0, 1.0 ]
    from_reference: !<GroupTransform>
      children:
        - !<MatrixTransform> { matrix: [ 0.822533651175139, 0.17754580666797, 5.36947712599933e-05, 0, 0.0331170846132368, 0.966848142976822, -3.14995811217383e-06, 0, 0.0170564417474994, 0.0724006113523901, 0.910489265923157, 0, 0, 0, 0, 1 ] }
        - !<ColorSpaceTransform> { src: reference, dst: 2.2 EOTF Encoding }

  - !<ColorSpace>
    name: BT.1886
    family: Colorspaces
    equalitygroup: ""
    bitdepth: unknown
    description: BT.1886 2.4 Exponent EOTF Display. Also known as Rec.709 transfer function.
    isdata: false
    allocation: uniform
    allocationvars: [ 0, 1 ]
    from_reference: !<ColorSpaceTransform> { src: reference, dst: 2.4 EOTF Encoding }

  - !<ColorSpace>
    name: AgX Base
    family: AgX
    equalitygroup: ""
    bitdepth: unknown
    description: AgX Base Image Encoding, output is already display encoded.
    isdata: false
    allocation: uniform
    allocationvars: [ 0, 1 ]
    from_reference: !<GroupTransform>
      children:
        - !<ColorSpaceTransform> { src: reference, dst: AgX Log (Kraken) }
        - !<FileTransform> { src: AgX_Default_Contrast.spi1d, interpolation: linear }

  - !<ColorSpace>
    name: AgX Base sRGB
    family: Views/AgX sRGB
    equalitygroup: ""
    bitdepth: unknown
    description: AgX Base Image Encoding for sRGB Displays
    isdata: false
    allocation: uniform
    allocationvars: [ 0, 1 ]
    from_reference: !<GroupTransform>
      children:
        - !<ColorSpaceTransform> { src: reference, dst: AgX Base }

  - !<ColorSpace>
    name: AgX Base BT.1886
    family: Views/AgX BT.1886
    equalitygroup: ""
    bitdepth: unknown
    description: AgX Base Image Encoding for BT.1886 Displays
    isdata: false
    allocation: uniform
    allocationvars: [ 0, 1 ]
    from_reference: !<GroupTransform>
      children:
        - !<ColorSpaceTransform> { src: reference, dst: AgX Base }
        - !<ColorSpaceTransform> { src: 2.2 EOTF Encoding, dst: 2.4 EOTF Encoding }

  - !<ColorSpace>
    name: AgX Base Display P3
    family: Views/AgX Display P3
    equalitygroup: ""
    bitdepth: unknown
    description: AgX Base Image Encoding for Display P3 Displays
    isdata: false
    allocation: uniform
    allocationvars: [ 0, 1 ]
    from_reference: !<GroupTransform>
      children:
        - !<ColorSpaceTransform> { src: reference, dst: AgX Base }
        - !<ColorSpaceTransform> { src: 2.2 EOTF Encoding, dst: Display P3 }

  - !<ColorSpace>
    name: Appearance Punchy sRGB
    family: Views/Appearance
    equalitygroup: ""
    bitdepth: unknown
    description: A punchy and more chroma laden look for sRGB displays
    isdata: false
    allocation: uniform
    allocationvars: [ 0, 1 ]
    from_reference: !<LookTransform> { src: reference, dst: AgX Base, looks: Punchy }

  - !<ColorSpace>
    name: Appearance Punchy Display P3
    family: Views/Appearance
    equalitygroup: ""
    bitdepth: unknown
    description: A punchy and more chroma laden look for Display P3 displays
    isdata: false
    allocation: uniform
    allocationvars: [ 0, 1 ]
    from_reference: !<GroupTransform>
      children:
        - !<LookTransform> { src: reference, dst: AgX Base, looks: Punchy }
        - !<ColorSpaceTransform> { src: 2.2 EOTF Encoding, dst: Display P3 }

  - !<ColorSpace>
    name: Appearance Punchy BT.1886
    family: Views/Appearance
    equalitygroup: ""
    bitdepth: unknown
    description: A punchy and more chroma laden look for BT.1886 displays
    isdata: false
    allocation: uniform
    allocationvars: [ 0, 1 ]
    from_reference: !<GroupTransform>
      children:
        - !<LookTransform> { src: reference, dst: AgX Base, looks: Punchy }
        - !<ColorSpaceTransform> { src: 2.2 EOTF Encoding, dst: 2.4 EOTF Encoding }

  - !<ColorSpace>
    name: Passthrough
    family: Colorspaces
    equalitygroup: scalar
    bitdepth: 32f
    description: Passthrough means no transformations. Also know as "raw".
    isdata: true
    allocation: uniform
    allocationvars: [0, 1]

  - !<ColorSpace>
    name: ACEScg
    family: Colorspaces
    equalitygroup: ""
    bitdepth: 32f
    description: ACES rendering space for CGI. Also known as AP1.
    isdata: false
    allocation: lg2
    allocationvars: [ -8, 5, 0.00390625 ]
    from_reference: !<GroupTransform>
      children:
        - !<ColorSpaceTransform> { src: reference, dst: CIE - XYZ - D65 }
        - !<MatrixTransform> { matrix: [ 1.658186658708, -0.319051035652, -0.254201372847, 0.0, -0.649869953145, 1.609906073438, 0.009931879448, 0.0, 0.003064930409, 0.000831933457, 0.914527376674, 0.0, 0.0, 0.0, 0.0, 1.0 ] }

  - !<ColorSpace>
    name: ACES2065-1
    family: Colorspaces
    equalitygroup: ""
    bitdepth: 32f
    description: ACES Interchange format. Also known as AP0.
    isdata: false
    allocation: lg2
    allocationvars: [ -8, 5, 0.00390625 ]
    from_reference: !<GroupTransform>
      children:
        - !<ColorSpaceTransform> { src: reference, dst: CIE - XYZ - D65 }
        - !<MatrixTransform> { matrix: [ 1.0604675987, 0.008384430217, -0.014338952537, 0.0, -0.486910537062, 1.370790753303, 0.093070834934, 0.0, -0.005306229727, 0.006434186849, 0.916879121543, 0.0, 0.0, 0.0, 0.0, 1.0 ] }

  - !<ColorSpace>
    name: CIE - XYZ - D65
    family: Colorspaces
    bitdepth: 32f
    description: CIE 1931 Colorspace with a D65 whitepoint.
    allocation: lg2
    allocationvars: [ -8, 5, 0.00390625 ]
    from_reference: !<MatrixTransform> { matrix: [ 0.4124, 0.3576, 0.1805, 0.0, 0.2126, 0.7152, 0.0722, 0.0, 0.0193, 0.1192, 0.9505, 0.0, 0.0, 0.0, 0.0, 1.0 ] }
